X:1
T:1c. A New Season Harmony 2
C:c 1999 Harry Bolick
R:Waltz
O:US
A:Brooklyn, New York
M:3/4
L:1/8
Q:300
K:D
|:"D"  D4 E2 | "Bm" F6  |"A"  (A2c2) A2 |"G"  G6 |"D" D2 A4 | "A" A3 D EF |
[1 "G" G4 D2 | "A" E2 AG FE |"D"  D2 A4 :|[2 "G"  G4 D2| "G"  G4 G2 | "D"  D2 F2 A2 ||
K:G
|:"Bm" B4 A2 | "Em" G4 G2 |"Bm"   F6 |"C" G6 |"G" d2  BA G2 |
[1 B2 A2 "Am" G2 | "Bm"  F4 F2 :| [2 "Bm"  B2 F2 "A"A2 | "D" DE FE FG | "A" AcF2 E2 ||
